!!!id: 18xx:1991
!!!COM: Śmietański, Emil Władysław
!!!OTL: Sonate op. 2 – Larghetto
!!!PDT: 1865
!!!SMS-siglum: PL-Wtm
!!!SMS-shelfmark: R 2007
!!!NIFC-rismID: 1001112887
!!!URL-scan: http://repozytorium.nifc.pl/skany/pl-wtm-nut--r2007
!!!ONB-nifc: UWAGA: części Sonaty: 1. Allegro assai, 2. Larghetto, 3. Scherzo, 4. Finale. Presto
!!!SMS-variant:
!!!SMS-altvar:
**kern	**kern	**kern	**dynam
*part3	*part2	*part1	*part1
*staff3	*staff2	*staff1	*
*	*I"Fortepian	*I"Skrzypce	*
*clefF4	*clefG2	*clefG2	*
*k[b-e-a-]	*k[b-e-a-]	*k[b-e-a-]	*
*M9/8	*M9/8	*M9/8	*
*all\right	*all\right	*all\right	*
!	!	!LO:TX:a:i:t=Adagio. quasi Larghetto.	!
*	*	*	*above
4.BB-\	4B-X</ 4F</	4r	.
.	8e-</ 8G</	8r	.
=1	=1	=1	=1
!	!	!LO:TX:a:i:t=7	!
2.BB-\ 2.EE-\	[4.e-</ [4.G</	8%9r	.
.	4e-</] 4G</]	.	.
.	8B-</ 8F</	.	.
4.BB-\ 4.EE-\	4e-</ 4G</	.	.
.	8g\ 8e-\	.	.
=2	=2	=2	=2
2.BB-\ 2.EE-\	[4.b-\ [4.g\	8%9r	.
.	4b-\] 4g\]	.	.
.	8cc\ 8f\	.	.
4.BB-\ 4.EE-\	4g\ 4e-\	.	.
.	8cc\ 8f\	.	.
=3	=3	=3	=3
*	*^	*	*
4.BB-\ 4.EE-\	4b-\ 4g\	4ryy	8%9r	.
.	8g\ 8e-\	8ryy	.	.
4.C\ 4.CC\	4.e-T/	4.G\	.	.
4.C\ 4.FF\	4dn\ 4An\	4ryy	.	.
.	8e-\	8ryy	.	.
*	*v	*v	*	*
=4	=4	=4	=4
*^	*	*	*
4.C#X/	[4.BBB-\	(4.en\ 4.B-\	8%9r	.
8D/	8BBB-\]	8f\ 8B-\)	.	.
4re	4re	4r	.	.
4.BB-\	4ryy	4B-\ 4F\	.	.
!	!	!LO:SIC:v:n=1:s=8e-	!	!
.	8ryy	8e\ 8G\	.	.
*v	*v	*	*	*
=5	=5	=5	=5
!	!LO:N:vis=4	!	!
2.BB-\ 2.EE-\	[4.e-\ [4.G\	8%9r	.
.	4e-\] 4G\]	.	.
.	8B-\ 8F\	.	.
4.BB-\ 4.EE-\	4e-\ 4G\	.	.
.	8g\ 8e-\	.	.
!LO:LB:g=original	!LO:LB:g=original	!	!
=6	=6	=6	=6
*^	*	*	*
4.E-/	[2.EE-\	[4.b-\ [4.g\	8%9r	.
4.B-/	.	4b-\] 4g\]	.	.
.	.	8gg\ 8g\	.	.
4.c/	4.EE-\]	4ee-\ 4g\	.	.
.	.	8g\	.	.
=7	=7	=7	=7	=7
*	*	*^	*	*
2.ryy	2.DD\	4b-\ 4g\ 4d\	2.ryy	8%9r	.
.	.	8ee-\	.	.	.
.	.	4dd\ 4f\ 4B-\	.	.	.
.	.	8d\	.	.	.
4.F#X\ 4.DD\	4ryy	4b-\	4.d\ 4.c\	.	.
.	8ryy	8an\	.	.	.
*v	*v	*	*	*	*
*	*v	*v	*	*
=8	=8	=8	=8
4.F#X\ [4.GG\	4.an\ [4.d\ 4.c\	2r	.
!	!LO:N:vis=4	!	!
4.G\ 4.GG\]	4.g\ 4.d\] 4.B-\	.	.
.	.	4r	.
4BB-\	4b-\ 4f#X\ 4d\ 4B-\	4B-\	.
8BBB-\	8b-\	8e-\	.
=9	=9	=9	=9
[<4.EE-\	4.b-\ 4.g\ 4.e-\ 4.B-\	[4.e-\	.
4EE-\]	4.b-\ 4.g\ 4.e-\ 4.B-\	4e-\]	p
!	!	!LO:TX:a:i:t=espressivo	!
8BB-\	.	8B-\	.
4E-\	4.b-\ 4.g\ 4.e-\ 4.B-\	4e-\	.
8G\	.	8g\	.
=10	=10	=10	=10
[4.B-\	4.ee-\ 4.g\ 4.e-\	[4.b-\	.
4B-\]	4.ee-\ 4.g\ 4.e-\	4b-\]	.
8c\	.	8cc\	.
4G\	4.ee-\ 4.g\ 4.e-\	4g\	.
8c\	.	8cc\	.
=11	=11	=11	=11
4B-\	4.ee-\ 4.g\ 4.e-\	4b-\	.
8G\	.	8g\	.
4.E-T\	4.b-\ 4.g\ 4.B-\	4.e-TT\	.
4D\	4.b-\ 4.g\ 4.B-\	4d\	.
8E-\	.	8e-\	.
!LO:LB:g=original	!LO:LB:g=original	!LO:LB:g=original	!
=12	=12	=12	=12
4.En\	[4.b-\ 4.g\ 4.c#X\ [4.B-\	(4.en^^\	.
8F\	8b-\] 8a-\ 8d\ 8B-\]	8f\)	.
4r	4r	4r	.
4BB-\	4.b-\ 4.a-\ 4.B-\	4B-\	.
!	!	!LO:SIC:v:s=8e-	!
8BBB-\	.	8e\	.
=13	=13	=13	=13
4.EE-\	4.b-\ 4.g\ 4.B-\	[4.e-\	.
4EE-\	4.b-\ 4.g\ 4.B-\	4e-\]	.
8BB-\	.	8B-\	.
4E-\	4.b-\ 4.g\ 4.B-\	4e-\	.
8G\	.	8g\	.
=14	=14	=14	=14
4.B-\	4.ee-\ 4.g\ 4.e-\	[4.b-\	.
!LO:N:vis=4.	!	!	!
4B-\	4.ee-\ 4.b-\ 4.e-\	4b-\]	.
8e-\	.	8gg\	.
4c\	4.ee-\ 4.cc\ 4.e-\	4ee-\	.
8F#X\	.	8f#X\	.
=15	=15	=15	=15
4G\	4.ee-\ 4.b-\ 4.e-\	4g\	.
8c\	.	8cc\	.
!	!	!LO:TX:a:i:t=poco rall.	!
4B-\	4.gg\ 4.b-\ 4.e-\	4b-\	.
8BB-\	.	8B-\	.
4G\	4.bb-\: 4.b-\: 4.a-\: 4.d:\	4g\	.
8F\	.	8f\	.
=16	=16	=16	=16
4.F\ [4.EE-\	4.bb-\: 4.b-\: 4.a-\: 4.d:\	4.f\	.
4E-\ 4EE-\]	4ee-\ 4g\ 4e-\	8e-\	.
.	.	4r	.
8r	8e-\	.	.
4ryy	8e-\L	4r	.
.	8e-\	.	.
8ryy	8e-\J	8r	.
!	!	!LO:LB:g=original	!
=17	=17	=17	=17
4.E-\ 4.AA-\	4.e-\ 4.c\	8e-\L	p
.	.	8a-\	.
.	.	8cc\J	.
4E-\ 4GG\	4e-\ 4B-\	4b-\	.
8r	8e-\	8r	.
4r	8e-\L	4r	.
.	8e-\	.	.
8r	8e-\J	8r	.
=18	=18	=18	=18
!	!	!	!LO:DY:a:t=p.
4.E-\ 4.AA-\	4.e-\ 4.c\	8e-\L	p
.	.	8a-\	.
.	.	8cc\J	.
4E-\ 4GG\	4e-\ 4B-\	4b-\	.
8r	8e-\	8r	.
4r	8e-\L	4r	.
.	8e-\	.	.
8r	8e-\J	8r	.
!LO:LB:g=original	!LO:LB:g=original	!	!
=19	=19	=19	=19
4.G/ 4.C/	8g\L 8e-\	8g\L	.
.	8g\	8cc\	.
.	8g\J	8ee-\J	.
4.G/ 4.BB-/	8g\L 8d\	8dd\L	.
.	8g\	8b-\	.
.	8g\J	8g\J	.
4.G/ 4.E-/	8g\L 8c\	8e-\L	.
.	8g\	8g\	.
.	8g\J	8cc\J	.
=20	=20	=20	=20
*	*^	*	*
4.G/ 4.D/	8g\L 8d\	4ryy	8b-\L	.
.	8g\	.	8e-\	.
.	8g\J	8ryy	8d\J	.
!	!	!	!LO:TX:a:i:t=marcato	!
2.D/ 2.DD/	4dd/ 4b-/	2.d\	4dd\ 4b-\	.
.	8b-/ 8g/	.	8b-\ 8g\	.
.	4.an/ 4.f#X/	.	4.an\ 4.f#X\	.
*	*v	*v	*	*
=21	=21	=21	=21
!	!	!	!LO:DY:a:t=p.
4.D\ 4.GG\	4.d\ 4.B-\	8d\L	p
.	.	8g\	.
.	.	8b-\J	.
4D\ 4FF#X\	4d\ 4An\	4an\	.
8r	8d\	8r	.
4r	8d\L	4r	.
.	8d\	.	.
8r	8d\J	8r	.
!	!	!LO:LB:g=original	!
=22	=22	=22	=22
4.D\ 4.GG\	4d\ 4B-\	8d\L	.
.	.	8g\	.
.	8d\	8b-\J	.
4.En\ 4.EEn\	8c#X\L 8A-\	2.an\	.
.	8c#\	.	.
.	8c#\J	.	.
!	!LO:SIC:v:n=2:s=8An	!	!
4.F\ 4.FF\	8d\L 8A-\	.	.
.	8d\	.	.
.	8d\J	.	.
=23	=23	=23	=23
4.GG\ 4.GGG\	8d\L 8B-\	8B-\L	.
.	8d\	8en\	.
.	8d\J	8g\J	.
!	!LO:SIC:v:n=2:s=8An	!	!
4.AAn\ 4.AAAn\	8dn\L 8A-\	8f\L	.
.	8d\	8d\	.
.	8d\J	8An\J	.
4.BB-\ 4.BBB-\	8d\L 8G\	8G\L	.
.	8d\	8B-\	.
.	8d\J	8en\J	.
=24	=24	=24	=24
*	*^	*	*
4.AAn\ 4.AAAn\	8d\L 8F\	4ryy	8d\L	.
.	8d\	.	8B-\	.
.	8d\J	8ryy	8An\J	.
!	!	!LO:SIC:v:s=2.An	!	!
2.AAA\	4an/ 4f/	2.A-\	4an\ 4f\	.
.	8f/ 8d/	.	8f\ 8d\	.
.	4.en/ 4.c#X/	.	4.en\ 4.c#X\	.
*	*v	*v	*	*
=25	=25	=25	=25
!LO:SIC:v:s=2.An	!	!LO:TX:a:i:t=4	!
[2.a-n>\	4aan/ 4ff/	8%9r	.
.	8ff/ 8dd/	.	.
.	4.een/ 4.cc#X/	.	.
!LO:SIC:v:s=4.An	!	!	!
4a->\]	4ff/ 4ee-X/ 4ccn/	.	.
8f>\	8ryy	.	.
!LO:LB:g=original	!LO:LB:g=original	!	!
=26	=26	=26	=26
8b->\L	4ff/ 4dd/	8%9r	.
8b->\	.	.	.
8an>\J	8gg/ 8ee-/	.	.
8b->\L	4ff/ 4dd/	.	.
8b->\	.	.	.
8a>\J	8gg/ 8ee-/	.	.
8b->\L	4ff/ 4dd/	.	.
8b->\	.	.	.
8f#X>\J	8ee-/ 8cc/	.	.
=27	=27	=27	=27
8g>\L	4dd/ 4b-/	8%9r	.
8g>\	.	.	.
8f#X>\J	8ee-/ 8cc/	.	.
8g>\L	4dd/ 4b-/	.	.
8g>\	.	.	.
8f#X>\J	8ee-/ 8cc/	.	.
8g>\L	4dd/ 4b-/	.	.
8g>\	.	.	.
8d>\J	8cc/ 8an/	.	.
=28	=28	=28	=28
8e->\L	4b-/ 4g/	8%9r	.
8e->\	.	.	.
8c>\J	8cc/ 8an/	.	.
8B->\L	4dd/ 4b-/	.	.
8B->\	.	.	.
8An>\J	8een/ 8cc#X/	.	.
8F/L	4ff/ 4dd/	.	.
8F/	.	.	.
8En/J	8gg/ 8een/	.	.
=29	=29	=29	=29
2.AAn\	4aan/ 4ff/	[>2.an\	.
.	8ff/ 8dd/	.	ppp
.	4.een\ 4.cc#X\	.	.
4.An\ 4.AAn\	4.ff\ 4.ee-X\ 4.ccn\	4a\]	.
.	.	8f\	.
=30	=30	=30	=30
8B-\L 8BB-\	4ff\ 4dd\ 4f\	8b-\L	.
8B-\ 8BB-\	.	8b-\	.
!	!	!	!LO:HP:a:t=crescendo
8An\J 8AAn\	8gg\ 8ee-\ 8g\	8an\J	<
8B-\L 8BB-\	4ff\ 4dd\ 4f\	8b-\L	.
8B-\ 8BB-\	.	8b-\	.
8A\J 8AA\	8gg\ 8ee-\ 8g\	8a\J	.
8B-\L 8BB-\	4ff\ 4dd\ 4f\	8b-\L	.
8B-\ 8BB-\	.	8b-\	.
8F#X\J 8FF#X\	8ee-\ 8cc\ 8e-\	8f#X\J	.
!	!	!LO:LB:g=original	!
=31	=31	=31	=31
8G\L 8GG\	4dd\ 4b-\ 4d\	8g\L	<
8G\ 8GG\	.	8g\	.
8F#X\J 8FF#X\	8ee-\ 8cc\ 8e-\	8f#X\J	.
8G\L 8GG\	4dd\ 4b-\ 4d\	8g\L	.
8G\ 8GG\	.	8g\	.
8F#\J 8FF#\	8ee-\ 8cc\ 8e-\	8f#\J	.
8G\L 8GG\	4dd\ 4b-\ 4d\	8g\L	.
8G\ 8GG\	.	8g\	.
8En\J 8EEn\	8gg\ 8b-\ 8g\	8en\J	.
!LO:PB:g=original	!LO:PB:g=original	!	!
=32	=32	=32	=32
*	*^	*	*
8F\L 8FF\	4cc\ 4c\	2.b-/	8f\L	.
8F\ 8FF\	.	.	8f\	.
8D\J 8DD\	8dd\ 8d\	.	8d\J	.
8BB-\L 8BBB-\	4ee-\ 4e-\	.	8B-\L	.
8BB-\ 8BBB-\	.	.	8B-\	.
8GG\J 8GGG\	8een\ 8en\	.	8G\J	.
8FF\L 8FFF\	4ff\ 4an\ 4f\	4.ryy	8An\L	[
8FF\ 8FFF\	.	.	8A\	.
8FF\J	8a\ 8e\	.	8f\J	.
*	*v	*v	*	*
=33	=33	=33	=33
!	!	!	!LO:DY:a:t=p.
[4.BBB-\	4.cc\ 4.an\ 4.e-\	2B-\	p
4BBB-\]	4b-\ 4d\	.	.
.	.	8ryy	.
8r	8B-\	8b-\	.
4r	8B-\L	8b-\L	.
.	8B-\	8b-\	.
8r	8B-\J	8b-\J	.
=34	=34	=34	=34
4.BB-\ 4.EE-\	4.B-</ 4.G-<X/	8b-\L	pp
.	.	8ee-\	.
.	.	8gg-X\J	.
4BB-\ 4DD-X\	4B-</ 4F</	4ff\	.
8r	8B-</	8b-\	.
4r	8B-</L	8b-\L	.
.	8B-</	8b-\	.
8r	8B-</J	8b-\J	.
=35	=35	=35	=35
4.BB-\ 4.EE-\	4.B-</ 4.G-<X/	8b-\L	.
.	.	8ee-\	.
.	.	8gg-X\J	.
4BB-\ 4DD-X\	4B-</ 4F</	4ff\	.
8r	8B-</	8b-\	.
4r	8B-</L	8b-\L	.
.	8B-</	8b-\	.
8r	8B-</J	8b-\J	.
!	!	!LO:LB:g=original	!
=36	=36	=36	=36
4.BB-\ 4.EE-\	8B-</L 8G-<X/	8b-\L	.
.	8B-</	8ee-\	.
.	8B-</J	8gg-X\J	.
4.BB-\ 4.FF\	8B-</L 8F</	8ff\L	.
.	8B-</	8dd-X\	.
.	8B-</J	8b-\J	.
4.BB-\ 4.GG-X\	8B-</L 8E-</	8g-X\L	.
.	8B-</	8b-\	.
.	8B-</J	8ee-\J	.
=37	=37	=37	=37
4.BB-\ 4.FF\	8B-</L 8F</	8dd-X\L	.
.	8B-</	8g-X\	.
.	8B-</J	8f\J	.
4.FF\ 4.FFF\	4f</ 4d-<X/ 4F</	4ff\ 4dd-\	.
.	8d-<X/ 8B-</	8dd-\ 8b-\	.
4r	4.c</ 4.An</	4.cc\ 4.an\	.
8r	.	.	.
=38	=38	=38	=38
2.f>\	4ff/ 4dd-X/	1r	.
.	8dd-/ 8b-/	.	.
.	4.cc/ 4.an/	.	.
4.f>\	4.dd-X\ 4.cc-X\ 4.a-X\	.	.
.	.	8r	.
!LO:LB:g=original	!LO:LB:g=original	!	!
=39	=39	=39	=39
4.b->\ 4.g-X>\	8dd-X/L	4.g-X\	ppp
.	8gg-X/	.	.
.	8bb-/J	.	.
4.a->\ 4.d-X>\	4aa-/ 4ff/	2.d-X\	.
.	8dd-/	.	.
4r>	8dd-/L	.	.
.	8dd-/	.	.
8r>	8dd-/J	.	.
=40	=40	=40	=40
*^	*	*	*
4.b->\ 4.g-X>\	4ryy	8dd-X/L	4.g-X\	.
.	.	8gg-X/	.	.
.	8ryy	8bb-/J	.	.
4.a->\ 4.d-X>\	4ryy	4aa-/ 4ff/	4.d-X\	.
.	8ryy	8dd-/	.	.
4.a->\	4Bn>\	8ddn/L	4A-\	.
.	.	8dd/	.	.
.	8Bn>\	8dd/J	8B-\	.
*v	*v	*	*	*
=41	=41	=41	=41
4.g-X>\ 4.e->\	8b-/L	4.e-\	.
.	8ee-/	.	.
.	8gg-X/J	.	.
4.f>\ 4.B->\	4ff/ 4ddn/	2.B-\	.
.	8b-/	.	.
4r>	8b-/L	.	.
.	8b-/	.	.
8r>	8b-/J	.	.
=42	=42	=42	=42
*^	*	*	*
4.g-X>\ 4.e->\	4ryy	8b-/L	4.e-\	.
.	.	8ee-/	.	.
.	8ryy	8gg-X/J	.	.
4.f>\ 4.B->\	4ryy	4ff/ 4ddn/	4.B-\	<
.	8ryy	8b-/	.	.
4.f>\	4A->\	8bn/L	4f\	.
.	.	8b/	.	.
.	8G>\	8b/J	8g\	[[
*v	*v	*	*	*
!	!	!LO:LB:g=original	!
=43	=43	=43	=43
*	*^	*	*
4.C\ 4.CC\	8g/L	4.e-\	8g\L	<
.	8cc/	.	8cc\	.
.	8ee-/J	.	8ee-\J	.
2.GG\ 2.GGG\	4dd\ 4bn\ 4g\ 4d\	4ryy	4dd\	.
.	8g\	8ryy	8g\	.
.	8g\L	4ryy	8g\L	.
.	8g\	.	8g\	.
.	8g\J	8ryy	8g\J	.
*	*v	*v	*	*
=44	=44	=44	=44
4.C\ 4.CC\	8g\L 8G\	8g\L	.
.	8g\ 8G\	8cc\	.
.	8g\J 8G\	8ee-\J	.
4.GG\ 4.GGG\	8g\L 8G\	4dd\	.
.	8g\ 8G\	.	.
.	8g\J 8G\	8g\	.
4.C\ 4.CC\	8g\L 8G\	8g\L	.
.	8g\ 8G\	8cc\	.
.	8g\J 8G\	8ee-\J	[[
!LO:LB:g=original	!LO:LB:g=original	!	!
=45	=45	=45	=45
*	*^	*	*
!	!LO:TX:a:i:t=c	!	!	!
!	!LO:TX:a:i:t=g	!	!	!
2.AAn\ 2.AAAn\	8c/L	4.G\	[4.ee-\	f
.	8e-/	.	.	.
.	8g/J	.	.	.
.	4f#X\ 4F#X\	4ryy	4ee-\]	.
.	8c\	8ryy	8an\	.
4.AA\ 4.AAA\	8c\L	4ryy	4ee-\	.
.	8c\	.	.	.
.	8c\J	8ryy	8ff#X\	.
*	*v	*v	*	*
=46	=46	=46	=46
4.AAn\ 4.AAAn\	8c\L	4aan^^\	.
.	8c\	.	.
.	8c\J	8bb-\	.
4.EE-\ 4.EEE-\	8c\L	4gg-X^^\	.
.	8c\	.	.
.	8c\J	8bb-\	.
4.AA\ 4.AAA\	8c\L	4aa\	.
.	8c\	.	.
.	8c\J	8ee-\	.
=47	=47	=47	=47
*	*^	*	*
2.BB-\ 2.BBB-\	8d-X/L	4.A-\	[4.een\	.
.	8f-X/	.	.	.
.	8a-/J	.	.	.
.	4g\ 4G\	4ryy	4ee\]	.
.	8d-\	8ryy	8b-\	.
4.BB-\ 4.BBB-\	8d-\L	4ryy	4ee\	.
.	8d-\	.	.	.
.	8d-\J	8ryy	8gg\	.
*	*v	*v	*	*
!	!	!LO:LB:g=original	!
=48	=48	=48	=48
4.BB-\ 4.BBB-\	8c#X\L	4bb-\	.
.	8c#\	.	.
.	8c#\J	8ccc\	.
4.EEn\ 4.EEEn\	8c#\L	4aan\	.
.	8c#\	.	.
.	8c#\J	8ccc\	.
!	!	!	!LO:HP:t=crescendo
4.BB-\ 4.BBB-\	8c#\L	4bb-\	<
.	8c#\	.	.
.	8c#\J	8een\	.
=49	=49	=49	=49
*	*^	*	*
4.BB-\ 4.BBB-\	8d/L	4.A-\	[4.ff\	.
.	8f/	.	.	.
.	8b-/J	.	.	.
4.FF\ 4.FFF\	4a-\ 4A-\	4ryy	4ff\]	.
.	8d/	8ryy	8b-\	.
4.BB-\ 4.BBB-\	8d/L	4ryy	4ff\	.
.	8d/	.	.	.
.	8d/J	8ryy	8aa-\	.
*	*v	*v	*	*
=50	=50	=50	=50
4.BB-\ 4.BBB-\	8b-\L 8d\	4bb-\	.
.	8b-\ 8d\	.	.
!	!	!LO:TX:a:i:t=ritenuto	!
.	8b-\J 8d\	8ccc\	.
4.FF\ 4.FFF\	8cc\L 8b-\ 8e-\	4aan\	.
.	8cc\ 8b-\ 8e-\	.	.
.	8cc\J 8b-\ 8e-\	8ccc\	.
4.BB-\ 4.BBB-\	8dd\L 8b-\ 8f\	4bb-^^<\	.
.	8dd\ 8f\	.	.
!	!	!	!LO:DY:a
.	8dd\J 8f\	8b-\	ff
!LO:LB:g=original	!LO:LB:g=original	!	!
=51	=51	=51	=51
[4.EE-\ [4.EEE-\	8ee-\L 8g\	[4.ee-\	.
.	8ee-\ 8g\	.	.
.	8ee-\J 8g\	.	.
4EE-\] 4EEE-\]	8ee-\L 8g\	4ee-\]	.
.	8ee-\ 8g\	.	.
8BB-\ 8BBB-\	8ee-\J 8g\	8b-\	.
4E-\ 4EE-\	8ee-\L 8g\	4ee-\	.
.	8ee-\ 8g\	.	.
8G\ 8GG\	8ee-\J 8g\	8gg\	.
=52	=52	=52	=52
*	*rep	*	*
4.B-\ 4.BB-\	8ee-\L 8g\	[4.bb-\	.
.	8ee-\ 8g\	.	.
.	8ee-\J 8g\	.	.
4B-\ 4BB-\	8ee-\L 8g\	4bb-\]	.
.	8ee-\ 8g\	.	.
8c\ 8C\	8ee-\J 8g\	8ccc\	.
4G\ 4GG\	8ee-\L 8g\	4gg\	.
.	8ee-\ 8g\	.	.
8c\ 8C\	8ee-\J 8g\	8ccc\	.
!	!	!LO:PB:g=original	!
*	*Xrep	*	*
=53	=53	=53	=53
*	*rep	*	*
4B-\ 4BB-\	8ee-\L 8g\	4bb-\	.
.	8ee-\ 8g\	.	.
8G\ 8GG\	8ee-\J 8g\	8gg\	.
4.E-\T 4.EE-\	8ee-\L 8g\	4.ee-TT\	.
.	8ee-\ 8g\	.	.
.	8ee-\J 8g\	.	.
4D\ 4DD\	8ee-\L 8g\	4ddn\	.
.	8ee-\ 8g\	.	.
8E-\ 8EE-\	8ee-\J 8g\	8ee-\	.
*	*Xrep	*	*
=54	=54	=54	=54
4.En\ 4.EEn\	8cc#X\L 8g\	4.een\	.
.	8cc#\ 8g\	.	.
.	8cc#\J 8g\	.	.
4.F\ 4.FF\	8ddn\L 8a-\	4.ff\	.
.	8dd\ 8a-\	.	.
.	8dd\J 8a-\	.	.
4.BB-\ 4.BBB-\	8dd\L 8f\	4b-\	.
.	8dd\ 8f\	.	.
!	!	!LO:TX:a:i:t=molto espressivo	!
!	!	!LO:SIC:v:s=8ee-	!
.	8ee-\J 8g\	8ee\	.
=55	=55	=55	=55
[4.EE-\ [4.EEE-\	8ee-\L 8g\	[4.ee-\	.
.	8ee-\ 8g\	.	.
.	8ee-\J 8g\	.	.
4EE-\] 4EEE-\]	8ee-\L 8g\	4ee-\]	.
.	8ee-\ 8g\	.	.
8BB-\ 8BBB-\	8ee-\J 8g\	8b-\	.
4E-\ 4EE-\	8ee-\L 8g\	4ee-\	.
.	8ee-\ 8g\	.	.
8G\ 8GG\	8ee-\J 8g\	8gg\	.
=56	=56	=56	=56
[4.B-\ [4.BB-\	8ee-\L 8g\	[4.bb-\	.
.	8ee-\ 8g\	.	.
.	8ee-\J 8g\	.	.
4B-\] 4BB-\]	8b-\L 8e-\	4bb-\]	.
.	8b-\ 8e-\	.	.
8g\ 8G\	8b-\J 8e-\	8ggg\	.
4e-\ 4E-\	8cc\L 8f#X\	4eee-\	.
.	8cc\ 8f#\	.	.
8F#X\ 8FF#X\	8cc\J 8e-\	8ff#X\	.
=57	=57	=57	=57
4G\ 4GG\	8b-\L 8e-\	4gg\	.
.	8b-\ 8e-\	.	.
8c\ 8C\	8b-\J 8e-\	8ccc\	.
4B-\ 4BB-\	8b-\L 8g\ 8e-\	4bb-\	.
.	8b-\ 8g\ 8e-\	.	.
8BB-\ 8BBB-\	8b-\J 8g\ 8e-\	8b-\	.
4G\ 4GG\	8b-\L 8a-\ 8d\	4gg\	.
.	8b-\ 8a-\ 8d\	.	.
8F\ 8FF\	8b-\J 8a-\ 8d\	8ff\	.
!	!	!LO:LB:g=original	!
=58	=58	=58	=58
*^	*	*	*
4.F:/	2.EE-\: 2.EEE-:\	4.b-\ 4.a-\ 4.d\	4.ff^^\	.
4E-/	.	4g\ 4e-\	8ee-\	.
.	.	.	8r	.
8r	.	8r	8e-\	.
!	!	!	!	!LO:DY:t=p.
4ryy	4rCC	4r	8e-\L	p
.	.	.	8e-\	.
8ryy	8rCC	8r	8e-\J	.
*v	*v	*	*	*
!LO:LB:g=original	!LO:LB:g=original	!	!
=59	=59	=59	=59
4.E-\ 4.AA-\	8e-\L 8c\	[4.e-\	.
.	8a-\	.	.
.	8cc\J	.	.
4.E-\ 4.GG\	4b-\ 4e-\ 4B-\	4e-\]	.
.	8e-\	8e-\	.
4r	8e-\L	8e-\L	.
.	8e-\	8e-\	.
8r	8e-\J	8e-\J	.
=60	=60	=60	=60
!	!	!	!LO:DY:t=p.
4.E-\ 4.AA-\	8e-\L 8c\	[4.e-\	p
.	8a-\	.	.
.	8cc\J	.	.
4.E-\ 4.BB-\ 4.GG\	4b-\ 4e-\ 4B-\	4e-\]	.
.	8e-\	8e-\	.
4r	8e-\L	8e-\L	.
.	8e-\	8e-\	.
8r	8e-\J	8e-\J	.
=61	=61	=61	=61
4.G\ 4.C\	8g\L 8e-\	4.e-\	.
.	8cc\	.	.
.	8ee-\J	.	.
4.G\ 4.BB-\	8dd\L 8d\	4g\	.
.	8b-\	.	.
.	8g\J	8g\	.
4.G\ 4.C\	8e-\L 8c\	8an\L 8g\	.
.	8g\	8a\ 8g\	<
.	8cc\J	8a\J 8g\	.
=62	=62	=62	=62
*	*^	*	*
4.G\ 4.D\	8b-\L 8B-\	4ryy	8b-\L 8g\	.
.	8e-\	.	8b-\ 8g\	.
.	8d\J	8ryy	8b-\J 8g\	.
2.D\ 2.DD\	4dd/ 4b-/	2.d\	8b-\L 8d\	.
.	.	.	8b-\ 8d\	.
.	8b-/ 8g/	.	8b-\J 8d\	.
.	4.an/ 4.f#X/	.	8dd\L 8d\	.
.	.	.	8dd\ 8d\	.
.	.	.	8dd\J 8d\	[[
*	*v	*v	*	*
!	!	!LO:LB:g=original	!
=63	=63	=63	=63
[2.D\	[2.d\	4dd\ 4b-\	pp
.	.	8b-\ 8g\	.
.	.	4.an\ 4.f#X\	.
4.D\]	4.d\]	4.b-\ 4.fn\	.
=64	=64	=64	=64
8E-\L	8e-\L	4b-\ 4g\	pp
8E-\	8e-\	.	.
8D\J	8d\J	8cc\ 8a-\	.
8E-\L	8e-\L	4b-\ 4g\	.
8E-\	8e-\	.	.
8D\J	8d\J	8cc\ 8a-\	.
8E-\L	8e-\L	4b-\ 4g\	.
8E-\	8e-\	.	.
8BBn\J	8Bn\J	8a-\ 8f\	.
=65	=65	=65	=65
8C\L	8c\L	4g\ 4e-\	.
8C\	8c\	.	.
8BBn\J	8Bn\J	8a-\ 8f\	.
8C\L	8c\L	4g\ 4e-\	.
8C\	8c\	.	.
8BB\J	8B\J	8a-\ 8f\	.
8C\L	8c\L	4g\ 4e-\	.
8C\	8c\	.	.
8GG\J	8G\J	8f\ 8d\	.
!LO:PB:g=original	!LO:PB:g=original	!	!
=66	=66	=66	=66
8AA-\L	8A-</L	4e-\ 4c\	.
8AA-\	8A-</	.	.
8GG\J	8G</J	8f\ 8d\	<
8EE-\L	8E-</L	4g\ 4e-\	.
8EE-\	8E-</	.	.
8DD\J	8D</J	8an\ 8f#X\	.
8BBB-\L	8BB-</L	4b-\ 4g\	.
8BBB-\	8BB-</	.	.
8AAAn\J	8AAn</J	8cc\ 8an\	[[
=67	=67	=67	=67
4.GG\ 4.GGG\	4.ryy	4dd\ 4b-^^\	.
.	.	8b-\ 8g\	.
4.D\ 4.DD\	4.ryy	4.an\ 4.f#X\	.
4.D\ 4.DD\	4.d\	4.b-\ 4.fn\	.
!	!	!LO:LB:g=original	!
=68	=68	=68	=68
8E-\L	8e-\L	4b-\ 4g\	.
8E-\	8e-\	.	.
8Dn\J	8d\J	8cc\ 8a-\	f
!	!	!	!LO:HP:t=cresc. e espressivo molto
8E-\L	8e-\L	4b-\ 4g\	<
8E-\	8e-\	.	.
8D\J	8d\J	8cc\ 8a-\	.
8E-\L	8e-\L	4b-\ 4g\	.
8E-\	8e-\	.	.
8BBn\J	8Bn\J	8a-\ 8f\	.
=69	=69	=69	=69
8C\L	8c\L	4g\ 4e-\	.
8C\	8c\	.	.
8BBn\J	8Bn\J	8a-\ 8f\	.
8C\L	8c\L	4g\ 4e-\	.
8C\	8c\	.	.
8BBn\J	8Bn\J	8a-\ 8f\	.
8C\L	8c\L	4g\ 4e-\	.
8C\	8c\	.	.
8AAn\J	8An\J	8cc\ 8e-\	.
=70	=70	=70	=70
8BB-\L	8B-</L	4f\ 4e-\	<
8BB-\	8B-</	.	.
8GG\J	8G</J	8g\ 8e-\	.
8EE-\L	8E-</L	4a-\ 4e-\	.
8EE-\	8E-</	.	.
8CC\J	8C</J	8an\ 8e-\	[
4BBB-\	4BB-</	4b-\ 4d^^\	.
8BB-\	8B-</	8dn\ 8A-X\	.
=71	=71	=71	=71
[<4.EE-\	[4.E-</	8e-\L 8G\	pp
.	.	8e-\ 8G\	.
.	.	8e-\J 8G\	.
!	!	!LO:TX:a:i:t=bis	!
4EE-\]	4E-</]	8e-\L 8G\	.
.	.	8e-\ 8G\	.
8BB-\	8B-</	8e-\J 8G\	.
4E-\	4e-</	8e-\L 8G\	.
.	.	8e-\ 8G\	.
8G\	8g</	8e-\J 8G\	.
!LO:LB:g=original	!LO:LB:g=original	!	!
=72	=72	=72	=72
!	!	!LO:TX:t=P:problem:takt 73 jako repetycja	!
[4.B-\	[4.b-\	8e-yy\L 8G\yy	.
.	.	8e-yy\ 8G\yy	.
.	.	8e-yy\J 8G\yy	.
4B-\]	4b-\]	8e-yy\L 8G\yy	.
.	.	8e-yy\ 8G\yy	.
8c\	8cc\	8e-yy\J 8G\yy	.
4G\	4g\	8e-yy\L 8G\yy	.
.	.	8e-yy\ 8G\yy	.
8c\	8cc\	8e-yy\J 8G\yy	.
=73	=73	=73	=73
*	*	*tremolo	*
[4.B-\	4.b-\	8e-\L 8G\	.
.	.	8e-\ 8G\	.
.	.	8e-\J 8G\	.
4B-\]	4b-\	8e-\L 8G\	.
.	.	8e-\ 8G\	.
8G\	8g\	8e-\J 8G\	.
4E-\	4e-\	8e-\L 8G\	.
.	.	8e-\ 8G\	.
8C\	8c\	8e-\J 8G\	.
!	!	!LO:LB:g=original	!
=74	=74	=74	=74
[<4.BBntt\	[<4.Bntt\	8e-\L 8G\	.
.	.	8e-\ 8G\	.
.	.	8e-\J 8G\	.
4.BBnXttt\]	4.BnXttt\]	8e-\L 8G\	.
.	.	8e-\ 8G\	.
.	.	8e-\J 8G\	.
!LO:SIC:v:s=4BB-	!	!	!
4BB\	8ryy	8dn\L 8G\	.
!	!LO:TX:t=P:problem:mixed beam	!	!
.	8B-X\L	8d\ 8G\	.
8BBB-\	8BB-</J	8d\J 8G\	.
=75	=75	=75	=75
[<4.EE-\	[4.E-</	8e-\L 8G\	.
.	.	8e-\ 8G\	.
.	.	8e-\J 8G\	.
4EE-\]	4E-</]	8e-\L 8G\	.
.	.	8e-\ 8G\	.
8BB-\	8B-</	8e-\J 8G\	.
4E-\	4e-\	8e-\L 8G\	.
.	.	8e-\ 8G\	.
8G\	8g\	8e-\J 8G\	.
=76	=76	=76	=76
4.B-\	4.b-\	8e-\L 8G\	.
.	.	8e-\ 8G\	.
.	.	8e-\J 8G\	.
4B-\	4b-\	8e-\L 8G\	.
.	.	8e-\ 8G\	.
8c\	8cc\	8e-\J 8G\	.
4G\	4g\	8e-\L 8G\	.
.	.	8e-\ 8G\	.
8c\	8cc\	8e-\J 8G\	.
=77	=77	=77	=77
4.B-\	4.b-\	8e-\L 8G\	.
.	.	8e-\ 8G\	.
.	.	8e-\J 8G\	.
!	!	!	!LO:DY:a
4B-\	4b-\	8e-\L 8G\	pp
!	!	!LO:TX:a:i:t=morendo	!
.	.	8e-\ 8G\	.
8G\	8g\	8e-\J 8G\	.
4E-\	4e-\	8e-\L 8G\	.
.	.	8e-\ 8G\	.
8C\	8c\	8e-\J 8G\	.
!LO:LB:g=original	!LO:LB:g=original	!	!
=78	=78	=78	=78
[<4.BBnt\	[<4.Bnt\	8e-\L 8G\	.
.	.	8e-\ 8G\	.
.	.	8e-\J 8G\	.
4.BBnt\]	4.BnXt\]	8e-\L 8G\	.
.	.	8e-\ 8G\	.
.	.	8e-\J 8G\	.
4BB-X\	4B-X\	8d\L 8G\	.
.	.	8d\ 8G\	.
8BBB-X\	8BB-X</	8d\J 8G\	.
=79	=79	=79	=79
4.EE-\	4.E-</	8e-\L 8G\	.
.	.	8e-\ 8G\	.
!	!	!LO:TX:a:i:t=bis	!
.	.	8e-\J 8G\	.
4.BBnt>\	4.Bn<t</	8e-\L 8G\	.
.	.	8e-\ 8G\	.
.	.	8e-\J 8G\	.
4BB-X\	4B-X</	8d\L 8G\	.
.	.	8d\ 8G\	.
8BBB-\	8BB-</	8d\J 8G\	.
=80	=80	=80	=80
!	!	!LO:TX:t=P:problem:t. 81 jako repetycja	!
4.EE-\	4.E-</	8e-yy\L 8G\yy	.
.	.	8e-yy\ 8G\yy	.
.	.	8e-yy\J 8G\yy	.
4.BBn\	4.Bn</	8e-yy\L 8G\yy	.
.	.	8e-yy\ 8G\yy	.
.	.	8e-yy\J 8G\yy	.
4BB-X\	4B-X</	8dyy\L 8G\yy	.
.	.	8dyy\ 8G\yy	.
8BBB-\	8BB-</	8dyy\J 8G\yy	.
=81	=81	=81	=81
4.EE-\	4.E-</	8e-\ 8G\	.
.	.	8r	.
.	.	8r	.
4.BB--\ 4.EE-\	4.c-<X/ 4.G-X</	2r	.
8BB--\L 8EE-\	8c-</L 8G-</	.	.
8BB--\ 8EE-\	8c-</ 8G-</	4r	.
8BB--\J 8EE-\	8c-</J 8G-</	.	.
!	!	!LO:LB:g=original	!
=82	=82	=82	=82
4.BB--\ 4.EE-\	4.c-X</ 4.G-X</	2r	.
4.BB--\ 4.EE-\	4.c-</ 4.G-</	.	.
.	.	2r	.
!LO:TX:t=P:problem:kasownik przed bemolem	!	!	!
4.BB-X\ 4.EE-\	4.B-</ 4.Gn</	.	.
.	.	8r	.
=83	=83	=83	=83
!	!	!LO:TX:a:i:t=piz.	!
[2.BB-\ [2.EE-\	[2.B-</ [2.G</	8e-\ 8G\	.
.	.	4r	.
.	.	4r	.
!	!	!	!LO:DY:a
.	.	2r	ppp
4.BB-\] 4.EE-\]	4.B-</] 4.G</]	.	.
=84	=84	=84	=84
[2.BB-\ [2.EE-\	[2.B-</ [2.G</	8e-\ 8G\	.
.	.	4r	.
.	.	4r	.
.	.	2r	.
4.BB-\] 4.EE-\]	4.B-</] 4.G</]	.	.
!LO:LB:g=original	!LO:LB:g=original	!	!
=85	=85	=85	=85
!LO:TX:a:i:t=lunga	!	!LO:N:vis=1	!
!LO:TX:a:i:t=Fine.	!	!LO:TX:b:i:t=Fine	!
2BB-\ 2EE-\	2B-</ 2G<;/	2e-/ 2G;/	.
==	==	==	==
*-	*-	*-	*-
!!!system-decoration: s1,{(s2,s3)}
!!!ENC: Marcin Jachim
!!!END: 2021-04-23
!!!RDF**kern: > = above
!!!RDF**kern: < = below
!!!EED: Andrzej Borzym
!!!EST: 2021-05-19
